X: 37283
T: Skipper Lost His Guernsey
R: jig
M: 6/8
K: Gmajor
|:GBd|e2d efg|f2e d2d|e2A ABc|d2B GBd|
e2d efg|f2e d2f|e2A ABA|G3:|
|:G2A|BdB BAG|F2G A2B|c2A ABc|d2B G2A|
BdB BAG|F2G A2g|e2d cAF|G3:|

